src/constants/svg/features.svg

<svg data-name="Layer 1" xmlns="http://www.w3.org/2000/svg" viewBox="0 0 769.411 524.375"><circle cx="174.757" cy="6.813" r="6.813" fill="#e6e6e6"/><circle cx="209.246" cy="6.813" r="6.813" fill="#e6e6e6"/><circle cx="243.735" cy="6.813" r="6.813" fill="#e6e6e6"/><circle cx="278.224" cy="6.813" r="6.813" fill="#e6e6e6"/><circle cx="312.713" cy="6.813" r="6.813" fill="#e6e6e6"/><circle cx="174.757" cy="41.735" r="6.813" fill="#e6e6e6"/><circle cx="209.246" cy="41.735" r="6.813" fill="#e6e6e6"/><circle cx="243.735" cy="41.735" r="6.813" fill="#e6e6e6"/><circle cx="278.224" cy="41.735" r="6.813" fill="#6a7aff"/><circle cx="312.713" cy="41.735" r="6.813" fill="#e6e6e6"/><circle cx="381.691" cy="41.735" r="6.813" fill="#e6e6e6"/><circle cx="174.757" cy="76.657" r="6.813" fill="#e6e6e6"/><circle cx="209.246" cy="76.657" r="6.813" fill="#e6e6e6"/><circle cx="243.735" cy="76.657" r="6.813" fill="#e6e6e6"/><circle cx="278.224" cy="76.657" r="6.813" fill="#e6e6e6"/><circle cx="312.713" cy="76.657" r="6.813" fill="#e6e6e6"/><circle cx="174.757" cy="111.579" r="6.813" fill="#e6e6e6"/><circle cx="209.246" cy="111.579" r="6.813" fill="#e6e6e6"/><circle cx="243.735" cy="111.579" r="6.813" fill="#e6e6e6"/><circle cx="278.224" cy="111.579" r="6.813" fill="#e6e6e6"/><circle cx="312.713" cy="111.579" r="6.813" fill="#e6e6e6"/><circle cx="347.202" cy="111.579" r="6.813" fill="#e6e6e6"/><circle cx="381.691" cy="111.579" r="6.813" fill="#e6e6e6"/><circle cx="416.18" cy="111.579" r="6.813" fill="#e6e6e6"/><circle cx="450.669" cy="111.579" r="6.813" fill="#e6e6e6"/><circle cx="485.158" cy="111.579" r="6.813" fill="#e6e6e6"/><circle cx="312.713" cy="146.501" r="6.813" fill="#e6e6e6"/><circle cx="347.202" cy="146.501" r="6.813" fill="#6a7aff"/><circle cx="381.691" cy="146.501" r="6.813" fill="#e6e6e6"/><circle cx="416.18" cy="146.501" r="6.813" fill="#e6e6e6"/><circle cx="450.669" cy="146.501" r="6.813" fill="#e6e6e6"/><circle cx="485.158" cy="146.501" r="6.813" fill="#e6e6e6"/><circle cx="312.713" cy="181.423" r="6.813" fill="#e6e6e6"/><circle cx="347.202" cy="181.423" r="6.813" fill="#e6e6e6"/><circle cx="381.691" cy="181.423" r="6.813" fill="#e6e6e6"/><circle cx="416.18" cy="181.423" r="6.813" fill="#e6e6e6"/><circle cx="450.669" cy="181.423" r="6.813" fill="#6a7aff"/><circle cx="485.158" cy="181.423" r="6.813" fill="#e6e6e6"/><circle cx="312.713" cy="216.345" r="6.813" fill="#e6e6e6"/><circle cx="347.202" cy="216.345" r="6.813" fill="#e6e6e6"/><circle cx="381.691" cy="216.345" r="6.813" fill="#e6e6e6"/><circle cx="416.18" cy="216.345" r="6.813" fill="#e6e6e6"/><circle cx="450.669" cy="216.345" r="6.813" fill="#e6e6e6"/><circle cx="485.158" cy="216.345" r="6.813" fill="#e6e6e6"/><circle cx="174.757" cy="251.267" r="6.813" fill="#e6e6e6"/><circle cx="209.246" cy="251.267" r="6.813" fill="#e6e6e6"/><circle cx="243.735" cy="251.267" r="6.813" fill="#e6e6e6"/><circle cx="278.224" cy="251.267" r="6.813" fill="#e6e6e6"/><circle cx="312.713" cy="251.267" r="6.813" fill="#e6e6e6"/><circle cx="347.202" cy="251.267" r="6.813" fill="#e6e6e6"/><circle cx="381.691" cy="251.267" r="6.813" fill="#e6e6e6"/><circle cx="416.18" cy="251.267" r="6.813" fill="#e6e6e6"/><circle cx="450.669" cy="251.267" r="6.813" fill="#e6e6e6"/><circle cx="485.158" cy="251.267" r="6.813" fill="#e6e6e6"/><circle cx="174.753" cy="286.188" r="6.813" fill="#e6e6e6"/><circle cx="209.246" cy="286.189" r="6.813" fill="#e6e6e6"/><circle cx="174.753" cy="321.11" r="6.813" fill="#e6e6e6"/><circle cx="209.246" cy="321.111" r="6.813" fill="#e6e6e6"/><circle cx="278.224" cy="321.111" r="6.813" fill="#e6e6e6"/><path d="M622 80.384H352a5.006 5.006 0 01-5-5V8.408a5.006 5.006 0 015-5h270a5.006 5.006 0 015 5v66.976a5.006 5.006 0 01-5 5zM352 5.408a3.003 3.003 0 00-3 3v66.976a3.003 3.003 0 003 3h270a3.003 3.003 0 003-3V8.408a3.003 3.003 0 00-3-3z" fill="#e6e6e6"/><circle cx="387" cy="41.896" r="21" fill="#6a7aff"/><path d="M435.5 27.896a3.5 3.5 0 100 7h93a3.5 3.5 0 100-7zM435.5 48.896a3.5 3.5 0 100 7h165a3.5 3.5 0 100-7zM275 216.384H5a5.006 5.006 0 01-5-5v-66.976a5.006 5.006 0 015-5h270a5.006 5.006 0 015 5v66.976a5.006 5.006 0 01-5 5zM5 141.408a3.003 3.003 0 00-3 3v66.976a3.003 3.003 0 003 3h270a3.003 3.003 0 003-3v-66.976a3.003 3.003 0 00-3-3z" fill="#e6e6e6"/><circle cx="40" cy="177.896" r="21" fill="#6a7aff"/><path d="M88.5 163.896a3.5 3.5 0 000 7h97a3.5 3.5 0 000-7zM88.5 184.896a3.5 3.5 0 000 7h165a3.5 3.5 0 000-7z" fill="#e6e6e6"/><path d="M519 363.384H249a5.006 5.006 0 01-5-5v-66.976a5.006 5.006 0 015-5h270a5.006 5.006 0 015 5v66.976a5.006 5.006 0 01-5 5zm-270-74.976a3.003 3.003 0 00-3 3v66.976a3.003 3.003 0 003 3h270a3.003 3.003 0 003-3v-66.976a3.003 3.003 0 00-3-3z" fill="#3f3d56"/><circle cx="284" cy="324.896" r="21" fill="#6a7aff"/><path d="M332.5 310.896a3.5 3.5 0 000 7h89a3.5 3.5 0 000-7zM332.5 331.896a3.5 3.5 0 000 7h165a3.5 3.5 0 000-7zM664.25 346.398c-11.726 35.177-59.695-2.132-59.695-2.132l12.791-133.247c19.188-14.924 39.442-2.132 39.442-2.132z" fill="#e6e6e6"/><path fill="#ffb8b8" d="M661.731 464.458l16.345.172-4.083 47.115-12.26.001-.002-47.288z"/><path d="M658.605 507.742h24.144a15.404 15.404 0 0115.387 15.387v.5h-39.53z" fill="#2f2e41"/><path fill="#ffb8b8" d="M617.421 464.458l-18.094-.001 5.832 47.288 12.26.001.002-47.288z"/><path d="M581.015 523.629v-.5a15.387 15.387 0 0115.387-15.387l24.144.001v15.888zM660.628 503.584L639.215 378.76l-19.84 123.214-20.1 1.117-5.36-165.086.403-.09c3.324-.745 81.537-17.924 94.359 6.652l.065.124-10.701 159.453z" fill="#2f2e41"/><circle cx="637.934" cy="170.843" r="24.561" fill="#ffb8b8"/><path d="M658.568 356.925c-2.88-.798-4.954-4.104-6.53-10.406-.271-1.086-25.771-109.711-4.206-129.391l4.97-13.808 6.803 4.535c2.407.022 27.02.645 29.124 16.423 2.06 15.443 7.666 118.913 2.03 125.349a1.219 1.219 0 01-.926.469c-5.71 0-7.444-6.336-7.852-8.356-1.357.562-5.402 2.629-12.048 9.275-4.117 4.118-7.345 6.09-10.012 6.09a5.037 5.037 0 01-1.353-.18z" fill="#2f2e41"/><path d="M605.267 351.015c-6.648-6.648-10.693-8.714-12.049-9.275-.407 2.02-2.14 8.356-7.851 8.356a1.219 1.219 0 01-.927-.47c-5.635-6.435-.029-109.905 2.03-125.348 2.104-15.778 26.718-16.4 29.125-16.423l6.802-4.535 4.971 13.808c21.564 19.678-3.935 128.305-4.207 129.391-1.575 6.302-3.65 9.608-6.529 10.406a5.037 5.037 0 01-1.353.18c-2.667 0-5.895-1.973-10.012-6.09zM658.211 184.872a25.204 25.204 0 00-12.207-45.54c-2.261-.226-4.696-.192-6.571-1.477-1.665-1.14-2.562-3.119-4.093-4.435a8.929 8.929 0 00-6.926-1.746 25.062 25.062 0 00-6.963 2.287c-5.446 2.429-11.235 5.417-13.713 10.84-2.147 4.698-1.2 10.491 1.84 14.668a20.41 20.41 0 0013.016 7.685 32.535 32.535 0 0015.285-1.376c3.241-1.02 6.441-2.41 9.838-2.524a13.37 13.37 0 0110.145 22.564" fill="#2f2e41"/><path d="M524.341 330.981a10.8 10.8 0 0010.548-11.048l14.323-24.166-11.066-10.146-15.088 23.81a10.801 10.801 0 001.283 21.55zM690.514 357.456a10.8 10.8 0 003.15-14.947l-.549-28.086-14.75-2.798-.29 28.186a10.801 10.801 0 0012.439 17.645z" fill="#ffb8b8"/><path d="M528.699 292.124l-.167-.266.165-.266c21.484-34.498 66.58-77.593 67.032-78.024l.143-.136 5.57-.057 6.02 15c-1.874 3.606-52.395 74.11-59.066 78.786a4.603 4.603 0 01-3.685.694 9.699 9.699 0 01-3.124-1.33c-6.157-3.814-12.573-13.902-12.888-14.401zM675.558 331.49a4.57 4.57 0 01-2.707-2.484c-3.217-7.505 10.569-102.302 11.157-106.334l.112-.763 4.66 2.954.046.2c.137.606 13.712 60.998 10.033 101.127l-.027.287-.261.12c-.56.26-11.868 5.454-19.404 5.454a10.192 10.192 0 01-3.61-.56z" fill="#2f2e41"/><path d="M768.411 524.375h-266a1 1 0 010-2h266a1 1 0 010 2z" fill="#3f3d56"/></svg>

<?xml version="1.0" encoding="UTF-8" standalone="no"?>
<!DOCTYPE svg PUBLIC "-//W3C//DTD SVG 1.1//EN" "http://www.w3.org/Graphics/SVG/1.1/DTD/svg11.dtd">
<svg width="100%" height="100%" viewBox="0 0 770 525" version="1.1" xmlns="http://www.w3.org/2000/svg" xmlns:xlink="http://www.w3.org/1999/xlink" xml:space="preserve" xmlns:serif="http://www.serif.com/" style="fill-rule:evenodd;clip-rule:evenodd;stroke-linejoin:round;stroke-miterlimit:2;">
    <circle cx="174.757" cy="6.813" r="6.813" style="fill:rgb(230,230,230);"/>
    <circle cx="209.246" cy="6.813" r="6.813" style="fill:rgb(230,230,230);"/>
    <circle cx="243.735" cy="6.813" r="6.813" style="fill:rgb(230,230,230);"/>
    <circle cx="278.224" cy="6.813" r="6.813" style="fill:rgb(230,230,230);"/>
    <circle cx="312.713" cy="6.813" r="6.813" style="fill:rgb(230,230,230);"/>
    <circle cx="174.757" cy="41.735" r="6.813" style="fill:rgb(230,230,230);"/>
    <circle cx="209.246" cy="41.735" r="6.813" style="fill:rgb(230,230,230);"/>
    <circle cx="243.735" cy="41.735" r="6.813" style="fill:rgb(230,230,230);"/>
    <circle cx="278.224" cy="41.735" r="6.813" style="fill:rgb(180,83,9);"/>
    <circle cx="312.713" cy="41.735" r="6.813" style="fill:rgb(230,230,230);"/>
    <circle cx="381.691" cy="41.735" r="6.813" style="fill:rgb(230,230,230);"/>
    <circle cx="174.757" cy="76.657" r="6.813" style="fill:rgb(230,230,230);"/>
    <circle cx="209.246" cy="76.657" r="6.813" style="fill:rgb(230,230,230);"/>
    <circle cx="243.735" cy="76.657" r="6.813" style="fill:rgb(230,230,230);"/>
    <circle cx="278.224" cy="76.657" r="6.813" style="fill:rgb(230,230,230);"/>
    <circle cx="312.713" cy="76.657" r="6.813" style="fill:rgb(230,230,230);"/>
    <circle cx="174.757" cy="111.579" r="6.813" style="fill:rgb(230,230,230);"/>
    <circle cx="209.246" cy="111.579" r="6.813" style="fill:rgb(230,230,230);"/>
    <circle cx="243.735" cy="111.579" r="6.813" style="fill:rgb(230,230,230);"/>
    <circle cx="278.224" cy="111.579" r="6.813" style="fill:rgb(230,230,230);"/>
    <circle cx="312.713" cy="111.579" r="6.813" style="fill:rgb(230,230,230);"/>
    <circle cx="347.202" cy="111.579" r="6.813" style="fill:rgb(230,230,230);"/>
    <circle cx="381.691" cy="111.579" r="6.813" style="fill:rgb(230,230,230);"/>
    <circle cx="416.18" cy="111.579" r="6.813" style="fill:rgb(230,230,230);"/>
    <circle cx="450.669" cy="111.579" r="6.813" style="fill:rgb(230,230,230);"/>
    <circle cx="485.158" cy="111.579" r="6.813" style="fill:rgb(230,230,230);"/>
    <circle cx="312.713" cy="146.501" r="6.813" style="fill:rgb(230,230,230);"/>
    <circle cx="347.202" cy="146.501" r="6.813" style="fill:rgb(180,83,9);"/>
    <circle cx="381.691" cy="146.501" r="6.813" style="fill:rgb(230,230,230);"/>
    <circle cx="416.18" cy="146.501" r="6.813" style="fill:rgb(230,230,230);"/>
    <circle cx="450.669" cy="146.501" r="6.813" style="fill:rgb(230,230,230);"/>
    <circle cx="485.158" cy="146.501" r="6.813" style="fill:rgb(230,230,230);"/>
    <circle cx="312.713" cy="181.423" r="6.813" style="fill:rgb(230,230,230);"/>
    <circle cx="347.202" cy="181.423" r="6.813" style="fill:rgb(230,230,230);"/>
    <circle cx="381.691" cy="181.423" r="6.813" style="fill:rgb(230,230,230);"/>
    <circle cx="416.18" cy="181.423" r="6.813" style="fill:rgb(230,230,230);"/>
    <circle cx="450.669" cy="181.423" r="6.813" style="fill:rgb(180,83,9);"/>
    <circle cx="485.158" cy="181.423" r="6.813" style="fill:rgb(230,230,230);"/>
    <circle cx="312.713" cy="216.345" r="6.813" style="fill:rgb(230,230,230);"/>
    <circle cx="347.202" cy="216.345" r="6.813" style="fill:rgb(230,230,230);"/>
    <circle cx="381.691" cy="216.345" r="6.813" style="fill:rgb(230,230,230);"/>
    <circle cx="416.18" cy="216.345" r="6.813" style="fill:rgb(230,230,230);"/>
    <circle cx="450.669" cy="216.345" r="6.813" style="fill:rgb(230,230,230);"/>
    <circle cx="485.158" cy="216.345" r="6.813" style="fill:rgb(230,230,230);"/>
    <circle cx="174.757" cy="251.267" r="6.813" style="fill:rgb(230,230,230);"/>
    <circle cx="209.246" cy="251.267" r="6.813" style="fill:rgb(230,230,230);"/>
    <circle cx="243.735" cy="251.267" r="6.813" style="fill:rgb(230,230,230);"/>
    <circle cx="278.224" cy="251.267" r="6.813" style="fill:rgb(230,230,230);"/>
    <circle cx="312.713" cy="251.267" r="6.813" style="fill:rgb(230,230,230);"/>
    <circle cx="347.202" cy="251.267" r="6.813" style="fill:rgb(230,230,230);"/>
    <circle cx="381.691" cy="251.267" r="6.813" style="fill:rgb(230,230,230);"/>
    <circle cx="416.18" cy="251.267" r="6.813" style="fill:rgb(230,230,230);"/>
    <circle cx="450.669" cy="251.267" r="6.813" style="fill:rgb(230,230,230);"/>
    <circle cx="485.158" cy="251.267" r="6.813" style="fill:rgb(230,230,230);"/>
    <circle cx="174.753" cy="286.188" r="6.813" style="fill:rgb(230,230,230);"/>
    <circle cx="209.246" cy="286.189" r="6.813" style="fill:rgb(230,230,230);"/>
    <circle cx="174.753" cy="321.11" r="6.813" style="fill:rgb(230,230,230);"/>
    <circle cx="209.246" cy="321.111" r="6.813" style="fill:rgb(230,230,230);"/>
    <circle cx="278.224" cy="321.111" r="6.813" style="fill:rgb(230,230,230);"/>
    <path d="M622,80.384L352,80.384C349.258,80.381 347.003,78.126 347,75.384L347,8.408C347.003,5.666 349.258,3.411 352,3.408L622,3.408C624.742,3.411 626.997,5.666 627,8.408L627,75.384C626.997,78.126 624.742,80.381 622,80.384ZM352,5.408C350.355,5.41 349.002,6.763 349,8.408L349,75.384C349.002,77.029 350.355,78.382 352,78.384L622,78.384C623.645,78.382 624.998,77.029 625,75.384L625,8.408C624.998,6.763 623.645,5.41 622,5.408L352,5.408Z" style="fill:rgb(230,230,230);fill-rule:nonzero;"/>
    <circle cx="387" cy="41.896" r="21" style="fill:rgb(180,83,9);"/>
    <path d="M435.5,27.896C433.58,27.896 432,29.476 432,31.396C432,33.316 433.58,34.896 435.5,34.896L528.5,34.896C530.42,34.896 532,33.316 532,31.396C532,29.476 530.42,27.896 528.5,27.896L435.5,27.896ZM435.5,48.896C433.58,48.896 432,50.476 432,52.396C432,54.316 433.58,55.896 435.5,55.896L600.5,55.896C602.42,55.896 604,54.316 604,52.396C604,50.476 602.42,48.896 600.5,48.896L435.5,48.896ZM275,216.384L5,216.384C2.258,216.381 0.003,214.126 0,211.384L0,144.408C0.003,141.666 2.258,139.411 5,139.408L275,139.408C277.742,139.411 279.997,141.666 280,144.408L280,211.384C279.997,214.126 277.742,216.381 275,216.384ZM5,141.408C3.355,141.41 2.002,142.763 2,144.408L2,211.384C2.002,213.029 3.355,214.382 5,214.384L275,214.384C276.645,214.382 277.998,213.029 278,211.384L278,144.408C277.998,142.763 276.645,141.41 275,141.408L5,141.408Z" style="fill:rgb(230,230,230);fill-rule:nonzero;"/>
    <circle cx="40" cy="177.896" r="21" style="fill:rgb(180,83,9);"/>
    <path d="M88.5,163.896C86.58,163.896 85,165.476 85,167.396C85,169.316 86.58,170.896 88.5,170.896L185.5,170.896C187.42,170.896 189,169.316 189,167.396C189,165.476 187.42,163.896 185.5,163.896L88.5,163.896ZM88.5,184.896C86.58,184.896 85,186.476 85,188.396C85,190.316 86.58,191.896 88.5,191.896L253.5,191.896C255.42,191.896 257,190.316 257,188.396C257,186.476 255.42,184.896 253.5,184.896L88.5,184.896Z" style="fill:rgb(230,230,230);fill-rule:nonzero;"/>
    <path d="M519,363.384L249,363.384C246.258,363.381 244.003,361.126 244,358.384L244,291.408C244.003,288.666 246.258,286.411 249,286.408L519,286.408C521.742,286.411 523.997,288.666 524,291.408L524,358.384C523.997,361.126 521.742,363.381 519,363.384ZM249,288.408C247.355,288.41 246.002,289.763 246,291.408L246,358.384C246.002,360.029 247.355,361.382 249,361.384L519,361.384C520.645,361.382 521.998,360.029 522,358.384L522,291.408C521.998,289.763 520.645,288.41 519,288.408L249,288.408Z" style="fill:rgb(63,61,86);fill-rule:nonzero;"/>
    <circle cx="284" cy="324.896" r="21" style="fill:rgb(180,83,9);"/>
    <path d="M332.5,310.896C330.58,310.896 329,312.476 329,314.396C329,316.316 330.58,317.896 332.5,317.896L421.5,317.896C423.42,317.896 425,316.316 425,314.396C425,312.476 423.42,310.896 421.5,310.896L332.5,310.896ZM332.5,331.896C330.58,331.896 329,333.476 329,335.396C329,337.316 330.58,338.896 332.5,338.896L497.5,338.896C499.42,338.896 501,337.316 501,335.396C501,333.476 499.42,331.896 497.5,331.896L332.5,331.896ZM664.25,346.398C652.524,381.575 604.555,344.266 604.555,344.266L617.346,211.019C636.534,196.095 656.788,208.887 656.788,208.887L664.25,346.398Z" style="fill:rgb(230,230,230);fill-rule:nonzero;"/>
    <path d="M661.731,464.458L678.076,464.63L673.993,511.745L661.733,511.746L661.731,464.458Z" style="fill:rgb(255,184,184);fill-rule:nonzero;"/>
    <path d="M658.605,507.742L682.749,507.742C691.187,507.751 698.127,514.691 698.136,523.129L698.136,523.629L658.606,523.629L658.605,507.742Z" style="fill:rgb(47,46,65);fill-rule:nonzero;"/>
    <path d="M617.421,464.458L599.327,464.457L605.159,511.745L617.419,511.746L617.421,464.458Z" style="fill:rgb(255,184,184);fill-rule:nonzero;"/>
    <path d="M581.015,523.629L581.015,523.129C581.015,514.688 587.961,507.742 596.402,507.742L620.546,507.743L620.546,523.631L581.015,523.629ZM660.628,503.584L639.215,378.76L619.375,501.974L599.275,503.091L593.915,338.005L594.318,337.915C597.642,337.17 675.855,319.991 688.677,344.567L688.742,344.691L678.041,504.144L660.628,503.584Z" style="fill:rgb(47,46,65);fill-rule:nonzero;"/>
    <circle cx="637.934" cy="170.843" r="24.561" style="fill:rgb(255,184,184);"/>
    <path d="M658.568,356.925C655.688,356.127 653.614,352.821 652.038,346.519C651.767,345.433 626.267,236.808 647.832,217.128L652.802,203.32L659.605,207.855C662.012,207.877 686.625,208.5 688.729,224.278C690.789,239.721 696.395,343.191 690.759,349.627C690.536,349.913 690.196,350.085 689.833,350.096C684.123,350.096 682.389,343.76 681.981,341.74C680.624,342.302 676.579,344.369 669.933,351.015C665.816,355.133 662.588,357.105 659.921,357.105C659.464,357.107 659.009,357.046 658.568,356.925Z" style="fill:rgb(47,46,65);fill-rule:nonzero;"/>
    <path d="M605.267,351.015C598.619,344.367 594.574,342.301 593.218,341.74C592.811,343.76 591.078,350.096 585.367,350.096C585.004,350.086 584.663,349.913 584.44,349.626C578.805,343.191 584.411,239.721 586.47,224.278C588.574,208.5 613.188,207.878 615.595,207.855L622.397,203.32L627.368,217.128C648.932,236.806 623.433,345.433 623.161,346.519C621.586,352.821 619.511,356.127 616.632,356.925C616.191,357.046 615.736,357.107 615.279,357.105C612.612,357.105 609.384,355.132 605.267,351.015ZM658.211,184.872C664.79,180.14 668.698,172.515 668.698,164.411C668.698,151.529 658.822,140.615 646.004,139.332C643.743,139.106 641.308,139.14 639.433,137.855C637.768,136.715 636.871,134.736 635.34,133.42C633.376,131.9 630.864,131.267 628.414,131.674C625.993,132.091 623.647,132.862 621.451,133.961C616.005,136.39 610.216,139.378 607.738,144.801C605.591,149.499 606.538,155.292 609.578,159.469C612.772,163.601 617.433,166.353 622.594,167.154C627.726,167.921 632.967,167.449 637.879,165.778C641.12,164.758 644.32,163.368 647.717,163.254C647.865,163.249 648.014,163.247 648.162,163.247C655.497,163.247 661.532,169.282 661.532,176.617C661.532,180.039 660.218,183.335 657.862,185.818" style="fill:rgb(47,46,65);fill-rule:nonzero;"/>
    <path d="M524.341,330.981C530.17,330.847 534.892,326.015 534.892,320.184C534.892,320.1 534.891,320.017 534.889,319.933L549.212,295.767L538.146,285.621L523.058,309.431C517.545,309.958 513.284,314.644 513.284,320.183C513.284,326.108 518.16,330.984 524.085,330.984C524.171,330.984 524.256,330.983 524.341,330.981ZM690.514,357.456C693.57,355.465 695.417,352.055 695.417,348.408C695.417,346.313 694.808,344.263 693.664,342.509L693.115,314.423L678.365,311.625L678.075,339.811C675.385,341.852 673.802,345.04 673.802,348.416C673.802,354.341 678.678,359.217 684.603,359.217C686.703,359.217 688.757,358.605 690.514,357.456Z" style="fill:rgb(255,184,184);fill-rule:nonzero;"/>
    <path d="M528.699,292.124L528.532,291.858L528.697,291.592C550.181,257.094 595.277,213.999 595.729,213.568L595.872,213.432L601.442,213.375L607.462,228.375C605.588,231.981 555.067,302.485 548.396,307.161C547.322,307.904 545.982,308.157 544.711,307.855C543.6,307.599 542.542,307.149 541.587,306.525C535.43,302.711 529.014,292.623 528.699,292.124ZM675.558,331.49C674.348,331.077 673.366,330.176 672.851,329.006C669.634,321.501 683.42,226.704 684.008,222.672L684.12,221.909L688.78,224.863L688.826,225.063C688.963,225.669 702.538,286.061 698.859,326.19L698.832,326.477L698.571,326.597C698.011,326.857 686.703,332.051 679.167,332.051C677.94,332.083 676.717,331.894 675.557,331.491L675.558,331.49Z" style="fill:rgb(47,46,65);fill-rule:nonzero;"/>
    <path d="M768.411,524.375L502.411,524.375C501.862,524.375 501.411,523.924 501.411,523.375C501.411,522.826 501.862,522.375 502.411,522.375L768.411,522.375C768.96,522.375 769.411,522.826 769.411,523.375C769.411,523.924 768.96,524.375 768.411,524.375Z" style="fill:rgb(63,61,86);fill-rule:nonzero;"/>
</svg>
